X: 77
T:Haud Awa Hame
S:Kerr's Merry Melodies
G:jig
M:6/8
L:1/8
K:F#Phr
f|cfg f2e|faf ecA|cfe f2e|cBA f3 |
  cfg f2e|faf ecA|ABA Bcd|cBA f2:|
d|cBA ABA|cBA Bcd|cBA ABc|cBc f3 |
  cBA ABA|cBA Bcd|cfa fed|cBA f2:|

It is fairly common in Spanish music, like this Sephardic song from
Andalusia:

